!!!!SEGMENT: pl-cz--d-ii-29--003_elsner-jozef--msza-f-op-35-graduale.krn
!!!cenid: 18xx:181
!!!COM: Elsner, Józef
!!!COM-rismid: pe30000957
!!!CDT: 1769/06/01-1854/04/18
!!!CNT: Polish
!!!OPR: Msza F op. 35
!!!OTL: Graduale
!!!OMV: 003
!!!PDT:
!!!AGN: Sacred; Mass
!!!SMS-siglum: PL-CZ
!!!SMS-shelfmark: D II-29
!!!SMS-shelfwork: 001-003 M
!!!NIFC-rismid:
!!!URL-scan: http://repozytorium.nifc.pl/skany/pl-cz-nut--dii-29
!!!ONB-nifc: UWAGA: części Mszy: Kyrie, Gloria, Graduale, Credo, Offertorium, Sanctus, Agnus Dei
**kern	**kern	**kern	**text	**text	**dynam	**kern	**text	**dynam	**kern	**text	**dynam	**kern	**text	**dynam
*part5	*part5	*part4	*part4	*part4	*part4	*part3	*part3	*part3	*part2	*part2	*part2	*part1	*part1	*part1
*staff6	*staff5	*staff4	*staff4	*staff4	*	*staff3	*staff3	*	*staff2	*staff2	*	*staff1	*staff1	*
*Iorgan	*Iempty	*Ibass	*	*	*	*Itenor	*	*	*Ialto	*	*	*Ivox	*	*
*I"ORGANO	*	*I"BASSO	*	*	*	*I"TENORE	*	*	*I"ALTO	*	*	*I"CANTO	*	*
*I'Org.	*	*I'B.	*	*	*	*I'T.	*	*	*I'A.	*	*	*I'S.	*	*
*group2	*group2	*group1	*	*	*	*group1	*	*	*group1	*	*	*group1	*	*
*clefF4	*clefG2	*clefF4	*	*	*	*clefC4	*	*	*clefC3	*	*	*clefC1	*	*
*k[b-]	*k[b-]	*k[b-]	*	*	*	*k[b-]	*	*	*k[b-]	*	*	*k[b-]	*	*
*F:	*F:	*F:	*	*	*	*F:	*	*	*F:	*	*	*F:	*	*
*M4/4	*M4/4	*M4/4	*	*	*	*M4/4	*	*	*M4/4	*	*	*M4/4	*	*
*met(c)	*met(c)	*met(c)	*	*	*	*met(c)	*	*	*met(c)	*	*	*met(c)	*	*
!	!LO:TX:B:t=Andante	!	!	!	!	!	!	!	!	!	!	!LO:TX:a:B:t=Andante	!	!
4r	4r	4F\	1.) Po-	2.) U-	.	4A\	1.) Po-	.	4c\	1.) Po-	.	4f/	1.) Po-	.
=1	=1	=1	=1	=1	=1	=1	=1	=1	=1	=1	=1	=1	=1	=1
1FF 1F	1A 1c 1f	4F\	-wstań-	-znay-	.	4A\	-wstań-	.	4c\	-wstań-	.	4f/	-wstań-	.
.	.	4F\	-cie	-cie	.	4A\	-cie	.	4c\	-cie	.	4f/	-cie	.
.	.	4F\	Swia-	pra-	.	4A\	Swia-	.	4c\	Swia-	.	4f/	Swia-	.
.	.	8F\	-tłoś-	-wdę	.	8A\	-tłoś-	.	8c\	-tłoś-	.	8f/	-tłoś-	.
.	.	8F\	-ci	w tem	.	8A\	-ci	.	8c\	-ci	.	8f/	-ci	.
=2	=2	=2	=2	=2	=2	=2	=2	=2	=2	=2	=2	=2	=2	=2
2CC/ 2C	(4.B-/ 4.e 4.g	2C/	Sy-	sło-	>	(4.B-\	Sy-	>	(4.e\	Sy-	>	(4.g\	Sy-	>
.	.	.	.	.	]	.	.	]	.	.	]	.	.	]
.	8c/) 8f 8a	.	.	.	.	8c\)	.	.	8f\)	.	.	8a\)	.	.
4FF/ 4F	4A/ 4c 4f	4F\	-ny	-wie	.	4A\	-ny	.	4c\	-ny	.	4f/	-ny	.
4r	4r	4F\	Po-	My	.	4A\	Po-	.	4c\	Po-	.	4f/	Po-	.
=3	=3	=3	=3	=3	=3	=3	=3	=3	=3	=3	=3	=3	=3	=3
1FF 1F	1A 1c 1f	4F\	-kor-	wszy-	.	4A\	-kor-	.	4c\	-kor-	.	4f/	-kor-	.
.	.	4F\	-nem	-scy	.	4A\	-nem	.	4c\	-nem	.	4f/	-nem	.
.	.	4F\	czu-	Bra-	.	4A\	czu-	.	4c\	czu-	.	4f/	czu-	.
.	.	8F\	-ciem	-cia	.	8A\	-ciem	.	8c\	-ciem	.	8f/	-ciem	.
.	.	8F\	prze-	ie-	.	8A\	prze-	.	8c\	prze-	.	8f/	prze-	.
=4	=4	=4	=4	=4	=4	=4	=4	=4	=4	=4	=4	=4	=4	=4
2CC/ 2C	(4.B-/ 4.e 4.g	2C/	-ię-	-steś-	.	(4.B-\	-ię-	>	(4.e\	-ię-	>	(4.g\	-ię-	>
.	.	.	.	.	.	.	.	]	.	.	]	.	.	]
.	8c/) 8f 8a	.	.	.	.	8c\)	.	]	8f\)	.	]	8a\)	.	]
4FF/ 4F	4A/ 4c 4f	4F\	-te	-my	.	4A\	-te	.	4c\	-te	.	4f/	-te	.
4r	4r	4D\	Pan	My	.	4A\	Pan	.	4d\	Pan	.	4f/	Pan	.
!!LO:PB:g=original
=5	=5	=5	=5	=5	=5	=5	=5	=5	=5	=5	=5	=5	=5	=5
2.DD/ 2.D	1A 1d 1f	4D\	z gór-	wszy-	.	4A\	z gór-	.	4d\	z gór-	.	4f/	z gór-	.
.	.	4D\	-ney	-scy	.	4A\	-ney	.	4d\	-ney	.	4f/	-ney	.
.	.	4D\	Nie-	Je-	.	4A\	Nie-	.	4d\	Nie-	.	4f/	Nie-	.
4CC/ 4C	.	8C/	-ba	-go	.	8A\	-ba	.	8d\	-ba	.	8f/	-ba	.
.	.	8C/	kra-	Sy-	.	8A\	kra-	.	8d\	kra-	.	8f/	kra-	.
=6	=6	=6	=6	=6	=6	=6	=6	=6	=6	=6	=6	=6	=6	=6
2BBBn/ 2BBn	2G/ 2d 2f	2BBn/	-i-	-no-	>	2G/	-i-	>	2d\	-i-	>	4.f/	-i-	>
.	.	.	.	.	]	.	.	]	.	.	]	.	.	]
.	.	.	.	.	.	.	.	.	.	.	.	8g/	.	]
4CC/ 4C	4G/ 4c 4e	4C/	-ny	-wie	]	4G/	-ny	]	4c\	-ny	]	4e/	-ny	.
4BBB-X/ 4BB-X	4c/ 4e 4g	4BB-X/	O-	Mi-	.	4c\	O-	.	4e\	O-	.	4g/	O-	.
=7	=7	=7	=7	=7	=7	=7	=7	=7	=7	=7	=7	=7	=7	=7
4AAA/ 4AA	4c/ 4f 4cc	4AA/	-gła-	-ło-	.	4c\	-gła-	.	4f\	-gła-	.	4cc\	-gła-	.
4BBB-/ 4BB-	4d/ 4f 4b-	4BB-/	-sza	-ścią	.	4d\	-sza	.	4f\	-sza	.	4b-\	-sza	.
!	!	!	!	!	!	!	!	!	!	!	!	!LO:N:vis=8	!	!
4CC/ 4C	4c/ 4f 4a	4C/	Na-	chwa-	.	4c\	Na-	.	4f\	Na-	.	4a\	Na-	.
*	*^	*	*	*	*	*	*	*	*	*	*	*	*	*
!	!	!	!LO:N:vis=4	!	!	!	!	!	!	!	!	!	!	!	!
4CC/ 4C	4e/ 4g	8c\L	8C/	-u-	-łę	.	8c\	-u-	.	8e\	-u-	.	8g\	-u-	.
!	!	!	!LO:N:vis=4	!	!	!	!	!	!	!	!	!	!	!	!
.	.	8B-\J	8C/	-ki	mu	.	8B-\	-ki	.	8e\	-ki	.	8g\	-ki	.
*	*v	*v	*	*	*	*	*	*	*	*	*	*	*	*	*
=8	=8	=8	=8	=8	=8	=8	=8	=8	=8	=8	=8	=8	=8	=8
2CC/ 2C	4.B-/ 4.e 4.g	2F\	swię-	wznieś-	.	(4.B-\	swię-	.	(4.e\	swię-	.	(4.g\	swię-	.
.	8c/ 8f 8a	.	.	.	.	8c\)	.	.	8f\)	.	.	8a\)	.	.
4FF/ 4F	4A/ 4c 4f	4F\	-te	-my	.	4A\	-te	.	4c/	-te	.	4f/	-te	.
==	==	==	==	==	==	==	==	==	==	==	==	==	==	==
*-	*-	*-	*-	*-	*-	*-	*-	*-	*-	*-	*-	*-	*-	*-
!!!system-decoration: [g1]{g2}
!!!ENC: Anna Matuszewska
!!!END: 2020-04-01
